X:1
T:Title
%%score { ( 1 3 ) | ( 2 4 ) }
L:1/8
Q:1/4=94
M:4/4
K:A
V:1 treble nm="Grand Piano"
V:3 treble 
V:2 bass 
V:4 bass 
V:1
 E2 C>E A2 E>A | (3cEA (3c-[Ac]c (3ece (3agf | [Ae]2 c>A E2 B>c | z2 (3cec a2 z2 | %4
w: W.~A.~Post * * * * *||||
 B2 [^Ec]>[EB] [FA]2 [FB]>[FA] | G2 A2 B2 c2 | G2 G>A [EG]2 [^DF]>[DG] | E2 E2 F2 G2 | %8
w: ||||
 A2 A>B c>B A>c | [Ge]2 [GB]>[GB] c>B A>[EG] | [DF]2 [FA]>[FA] [Fd]2 [FA]>[FB] | [Ec]6 z2 | %12
w: ||||
 B2 B>^A c2 B>B | A2 A>B c2 [Ed]>[Ed] | [Ee]2 [FA]>[FB] c2 B>B | [CA]6 z2 |] %16
w: ||||
V:2
 E,2 C,>E, A,2 E,>A, | C4 [A,A]4 | [E,C]2 C>A, E,2 [E,G,D]>[E,G,E] | [A,,A,]6 z2 | %4
 [E,G,E]2 [C,G,]>[C,C] [F,C]2 [^D,B,]>[D,B,] | B,2- [F,B,^D]2[K:treble] [G,B,E]2 [A,E]2 | %6
 [B,E]2 [B,E]>[B,F][K:bass] [B,,B,]2 [B,,A,]>[B,,B,] | [E,G,]6 z2 | %8
 [A,CE]2 [A,CE]>[A,DE] [EA]>[DE][K:bass] [A,CE]>[A,E] | z4[K:treble] E2[K:bass] z2 | %10
 [D,A,]2 [D,D]>[D,D] [D,A,]2 [D,A,]>[D,A,] | [A,,A,]6 z2 | %12
 [E,G,E]2 [E,G,E]>[E,=G,E] [E,^G,E]2 [E,G,D]>[E,G,D] | %13
 [F,A,C]2 [F,A,C]>[E,G,E] [A,E]2 [B,,G,]>[B,,G,] | [C,A,]2 [D,A,]>[D,A,] [E,A,E]2 [E,G,D]>[E,G,D] | %15
 [A,,A,]6 z2 |] %16
V:3
 x8 | x8 | x8 | (3[CA]-[C-EA][CA]- [CA]4 z2 | x8 | x8 | x8 | z2 z z/ E/- E2 z2 | x8 | x8 | x8 | %11
 x8 | x8 | x8 | x8 | x8 |] %16
V:4
 x8 | x8 | x8 | x8 | x8 | [E,E]2 z2[K:treble] z4 | x4[K:bass] x4 | z2 D,2 C,2 B,,2 | %8
 z4 A,2[K:bass] z2 | [E,B,]2 [E,E]>[E,E][K:treble] [A,A]->[A,DA][K:bass] [A,CE]>[C,A,] | x8 | x8 | %12
 x8 | x8 | x8 | x8 |] %16

